X:1
T:Heimweh, 77.77.77
T:Heimweh, 77.77.77
T:Samuel Sebastian Wesley (1810-1876)
T:Public Domain Courtesy of the Cyber Hymnal™
C:Samuel Sebastian Wesley (1810-1876)
Z:Public Domain
Z:Courtesy of the Cyber Hymnal™
%%score ( 1 2 ) ( 3 4 )
L:1/8
Q:1/4=106
M:4/4
K:C
V:1 treble 
V:2 treble 
V:3 bass 
V:4 bass 
V:1
 G2 [Gc]2 [GB]2 (cB) | [FA]2 [FA]2 [EG]4 | [EG]2 [FG]2 [Gc]2 [Ge]2 | %3
 [Ge]2 ([Fd][Ec]) ([Ec]2 [DB]2) | [EG]2 [Ec]2 [CG]2 (FE) | [CA]2 [FB]2 [Ec]4 | %6
 [Cc]2 [DB]2 [EA]2 [^CG]2 | [DG]2 [^FA]2 G4 | [CE]2 [CA]2 [CE]2 [B,E]2 | [EA]2 [Ec]2 [^Ge]4 | %10
 [EA]2 [FA]2 [EB]2 [^Fc]2 | [Gc]2 [FB]2 [Ec]4 |] %12
V:2
 G2 x2 G2 x2 | x8 | x8 | x8 | x6 C2 | x8 | x8 | x4 G4 | x8 | x8 | x8 | x8 |] %12
V:3
 [C,E]2 [E,E]2 [G,D]2 [E,C]2 | [F,C]2 [A,C]2 C4 | [C,G,]2 [D,B,]2 [E,C]2 [C,C]2 | %3
 [F,A,]2 [F,,A,]2 [G,,G,]4 | [C,G,]2 [A,,A,]2 (G,A,) _B,2 | [F,A,]2 [D,^G,]2 A,4 | %6
 [A,,E,]2 [B,,^G,]2 [C,A,]2 [E,A,]2 | [D,B,]2 [D,C]2 [G,,B,]4 | [C,G,]2 [A,,A,]2 [E,A,]2 [E,^G,]2 | %9
 C2 [A,C]2 [E,B,]4 | [^C,E]2 [D,D]2 [^G,,D]2 [A,,=C]2 | [G,,E]2 [G,,D]2 [C,C]4 |] %12
V:4
 x8 | x4 C4 | x8 | x8 | x4 E,2 (D,C,) | x4 A,4 | x8 | x8 | x8 | C2 x6 | x8 | x8 |] %12

